icons/format-clear.svg

<svg viewBox="0 0 24 24" fill="currentColor" xmlns="http://www.w3.org/2000/svg">
    <path d="M12.6512 14.0654L11.6047 20H9.57389L10.9247 12.339L3.51465 4.92892L4.92886 3.51471L20.4852 19.0711L19.071 20.4853L12.6512 14.0654ZM11.7727 7.53009L12.0425 5.99999H10.2426L8.24257 3.99999H19.9999V5.99999H14.0733L13.4991 9.25652L11.7727 7.53009Z"/>
</svg>

<svg xmlns="http://www.w3.org/2000/svg" viewBox="0 0 24 24">
    <g>
        <path fill="none" d="M0 0h24v24H0z"/>
        <path d="M12.651 14.065L11.605 20H9.574l1.35-7.661-7.41-7.41L4.93 3.515 20.485 19.07l-1.414 1.414-6.42-6.42zm-.878-6.535l.27-1.53h-1.8l-2-2H20v2h-5.927L13.5 9.257 11.773 7.53z"/>
    </g>
</svg>
